Suru++-Ubuntu/apps/scalable/words.svg

<svg width="256" height="256" version="1.1" viewBox="0 0 67.73 67.73" xmlns="http://www.w3.org/2000/svg" xmlns:xlink="http://www.w3.org/1999/xlink">
 <defs>
  <linearGradient id="linearGradient1108" x1="296" x2="296" y1="-212" y2="236" gradientUnits="userSpaceOnUse">
   <stop style="stop-color:#ffffff" offset="0"/>
   <stop style="stop-color:#ffffff;stop-opacity:.09803922" offset=".125"/>
   <stop style="stop-color:#000000;stop-opacity:.09803922" offset=".925"/>
   <stop style="stop-color:#000000;stop-opacity:.49803922" offset="1"/>
  </linearGradient>
  <clipPath id="clipPath1082">
   <path d="M 361.9375,-212 C 507.2348,-212 528,-191.28677 528,-46.125 V 70.125 C 528,215.28618 507.2348,236 361.9375,236 H 214.0625 C 68.7652,236 48,215.28618 48,70.125 V -46.125 C 48,-191.28677 68.7652,-212 214.0625,-212 Z" style="fill:#8c59d9"/>
  </clipPath>
  <filter id="filter1015" x="-.02" y="-.03" width="1.046" height="1.05" style="color-interpolation-filters:sRGB">
   <feGaussianBlur stdDeviation="2.32"/>
  </filter>
  <linearGradient id="g" x1="8" x2="21" y1="4" y2="32" gradientTransform="translate(7,4)" gradientUnits="userSpaceOnUse">
   <stop stop-color="#bdc3c7" offset="0"/>
   <stop stop-color="#7f8c8d" offset="1"/>
  </linearGradient>
  <linearGradient id="b" x2="0" y1="36" y2="32" gradientTransform="translate(-4.5,4)" gradientUnits="userSpaceOnUse">
   <stop stop-color="#f39c12" offset="0"/>
   <stop stop-color="#f5ab35" offset="1"/>
  </linearGradient>
  <linearGradient id="a" x1="27" x2="19" y1="44" y2="33" gradientTransform="matrix(5.0000001,0,0,6.2500001,57.464823,-10.717985)" gradientUnits="userSpaceOnUse">
   <stop stop-color="#18222a" offset="0"/>
   <stop stop-color="#566069" offset="1"/>
  </linearGradient>
  <filter id="filter989" x="-.07" y="-.04" width="1.144" height="1.072" style="color-interpolation-filters:sRGB">
   <feGaussianBlur stdDeviation=".54"/>
  </filter>
 </defs>
 <g transform="translate(0,-229.26666)">
  <path d="m43.837429 232.36713c19.593906 0 22.394174 2.79326 22.394174 22.36889v15.67676c0 19.57555-2.800268 22.36889-22.394174 22.36889h-19.94152c-19.593908 0-22.394176-2.79334-22.394176-22.36889v-15.67676c0-19.57563 2.8002684-22.36889 22.394176-22.36889z" style="fill:none;opacity:.2;stroke-linecap:round;stroke-linejoin:round;stroke-width:1.0788312;stroke:#000000"/>
  <path transform="matrix(.26970778 0 0 .26970778 -7.1289177 220.49999)" d="m188.96876 45.999995c72.64865 0 83.03125 10.356615 83.03125 82.937505v58.125c0 72.58059-10.3826 82.9375-83.03125 82.9375h-73.9375c-72.648654 0-83.031254-10.35691-83.031254-82.9375v-58.125c0-72.58089 10.3826-82.937505 83.031254-82.937505z" style="filter:url(#filter1015);opacity:.2"/>
  <path d="m43.837426 232.36713c19.593907 0 22.394175 2.79326 22.394175 22.36889v15.67676c0 19.57555-2.800268 22.36889-22.394175 22.36889h-19.94152c-19.593906 0-22.394174-2.79334-22.394174-22.36889v-15.67676c0-19.57563 2.8002681-22.36889 22.394174-22.36889z" style="fill:#f1f0e9"/>
  <path d="m23.895906 232.36713c-19.593906 0-22.394174 2.79326-22.394174 22.36889v15.67676c0 19.57555 2.8002681 22.36889 22.394174 22.36889h9.970758v-60.41454z" style="fill:#02171f;opacity:.05"/>
  <g transform="matrix(.26970778 0 0 .26970778 -7.1289177 220.49999)" style="enable-background:new">
   <path d="m72 108v-8.000001h144.66665v8.000001z" style="fill-opacity:.99607843;fill:#c8c4b7"/>
   <path d="m160 124v-8h79.33333v8z" style="fill-opacity:.99738566;fill:#aea795"/>
   <path d="m72 116v64l72 5e-5v-64.00005z" style="fill:#c8c4b7"/>
   <path d="m160 140v-8h40v8z" style="fill-opacity:.99738566;fill:#aea795"/>
   <path d="m160 155.92689v-7.92689h79.33333v7.92689z" style="fill-opacity:.99607843;fill:#c8c4b7"/>
   <path d="m72 212v-8h167.99998v8z" style="fill-opacity:.99607843;fill:#c8c4b7"/>
   <path d="m125.42423 132c-4.55633 0-8.25 3.69364-8.25 8.25 0 4.55635 3.69367 8.25 8.25 8.25 4.55634 0 8.25-3.69365 8.25-8.25 0-4.55636-3.69365-8.25-8.25-8.25zm-24.84741 7.43628-16.57682 28.56372h37.68961l-11.01562-21.11207-3.10473 5.95094z" style="fill:#e7e7df"/>
   <path d="m160 171.92689v-7.92689h79.33333v7.92689z" style="fill-opacity:.99607843;fill:#c8c4b7"/>
   <path d="m72 196v-7.92689h167.99999v7.92689z" style="fill-opacity:.99607843;fill:#c8c4b7"/>
   <path d="m72 228v-8h104v8z" style="fill-opacity:.99607843;fill:#c8c4b7"/>
   <path d="m72 92v-8h167.99998v8z" style="fill-opacity:.99607843;fill:#c8c4b7"/>
  </g>
  <g transform="matrix(1.3229167,0,0,1.3229167,21.818818,234.36836)" style="fill:#2d2d2d;filter:url(#filter989);opacity:.3">
   <path d="m18 8a2 2 0 0 0-2 2 2 2 0 0 0 0.855469 1.636719c-1.466469 4.423281-4.145469 11.653281-6.855469 14.363281 0 0 4 6 4 10h10c0-4 4-10 4-10-2.71-2.71-5.387-9.93-6.85-14.361a2 2 0 0 0 0.85-1.639 2 2 0 0 0-2-2v18.27c0.618 0.357 0.999 1.017 1 1.73 0 1.105-0.895 2-2 2s-2-0.895-2-2c1e-3 -0.713 0.382-1.372 1-1.729v-14.271z" style="fill:#2d2d2d"/>
   <g style="fill:#2d2d2d">
    <path d="m14 36h10c0.831 0 1.5 0.669 1.5 1.5s-0.669 1.5-1.5 1.5h-10c-0.831 0-1.5-0.669-1.5-1.5s0.669-1.5 1.5-1.5" style="fill:#2d2d2d"/>
    <path transform="matrix(.2 0 0 .2 -16.492964 -3.8564031)" d="m192.72266 239.28125c2.8587-0.19443 5.68538-0.39857 8.27343-0.6875 0.52245-0.05832 0.95702-0.15235 1.46875-0.21484v-24.09766h-50v25h40.25782z" style="fill:#2d2d2d"/>
   </g>
  </g>
  <g transform="matrix(1.3229167,0,0,1.3229167,21.818818,234.36836)">
   <path d="m18 8a2 2 0 0 0-2 2 2 2 0 0 0 0.855469 1.636719c-1.466469 4.423281-4.145469 11.653281-6.855469 14.363281 0 0 4 6 4 10h10c0-4 4-10 4-10-2.71-2.71-5.387-9.93-6.85-14.361a2 2 0 0 0 0.85-1.639 2 2 0 0 0-2-2v18.27c0.618 0.357 0.999 1.017 1 1.73 0 1.105-0.895 2-2 2s-2-0.895-2-2c1e-3 -0.713 0.382-1.372 1-1.729v-14.271z" style="fill:url(#g)"/>
   <path d="m14 36h10c0.831 0 1.5 0.669 1.5 1.5s-0.669 1.5-1.5 1.5h-10c-0.831 0-1.5-0.669-1.5-1.5s0.669-1.5 1.5-1.5" style="fill:url(#b)"/>
   <path transform="matrix(.2 0 0 .2 -16.492964 -3.8564031)" d="m192.72266 239.28125c2.8587-0.19443 5.68538-0.39857 8.27343-0.6875 0.52245-0.05832 0.95702-0.15235 1.46875-0.21484v-24.09766h-50v25h40.25782z" style="fill:url(#a)"/>
  </g>
  <path transform="matrix(.13485389 0 0 .13485389 -4.9712557 260.95615)" d="M 361.9375,-212 C 507.2348,-212 528,-191.28677 528,-46.125 V 70.125 C 528,215.28618 507.2348,236 361.9375,236 H 214.0625 C 68.7652,236 48,215.28618 48,70.125 V -46.125 C 48,-191.28677 68.7652,-212 214.0625,-212 Z" clip-path="url(#clipPath1082)" style="fill:none;opacity:.5;stroke-linecap:round;stroke-linejoin:round;stroke-width:8;stroke:url(#linearGradient1108)"/>
  <g transform="matrix(1.3229167,0,0,1.3229167,21.818818,234.36836)">
   <path d="m18 8a2 2 0 0 0-2 2 2 2 0 0 0 0.855469 1.636719c-1.466469 4.423281-4.145469 11.653281-6.855469 14.363281 0 0 4 6 4 10h10c0-4 4-10 4-10-2.71-2.71-5.387-9.93-6.85-14.361a2 2 0 0 0 0.85-1.639 2 2 0 0 0-2-2v18.27c0.618 0.357 0.999 1.017 1 1.73 0 1.105-0.895 2-2 2s-2-0.895-2-2c1e-3 -0.713 0.382-1.372 1-1.729v-14.271z" style="fill:url(#g)"/>
   <path d="m14 36h10c0.831 0 1.5 0.669 1.5 1.5s-0.669 1.5-1.5 1.5h-10c-0.831 0-1.5-0.669-1.5-1.5s0.669-1.5 1.5-1.5" style="fill:url(#b)"/>
   <path transform="matrix(.2 0 0 .2 -16.492964 -3.8564031)" d="m192.72266 239.28125c2.8587-0.19443 5.68538-0.39857 8.27343-0.6875 0.52245-0.05832 0.95702-0.15235 1.46875-0.21484v-24.09766h-50v25h40.25782z" style="fill:url(#a)"/>
  </g>
  <path transform="matrix(.13485389 0 0 .13485389 -4.9712557 260.95615)" d="M 361.9375,-212 C 507.2348,-212 528,-191.28677 528,-46.125 V 70.125 C 528,215.28618 507.2348,236 361.9375,236 H 214.0625 C 68.7652,236 48,215.28618 48,70.125 V -46.125 C 48,-191.28677 68.7652,-212 214.0625,-212 Z" clip-path="url(#clipPath1082)" style="fill:none;opacity:.5;stroke-linecap:round;stroke-linejoin:round;stroke-width:8;stroke:url(#linearGradient1108)"/>
 </g>
</svg>

<svg xmlns="http://www.w3.org/2000/svg" xmlns:xlink="http://www.w3.org/1999/xlink" width="256" height="256" version="1.1" viewBox="0 0 67.73 67.73">
 <defs>
  <linearGradient id="linearGradient1108" x1="296" x2="296" y1="-212" y2="236" gradientUnits="userSpaceOnUse" xlink:href="#linearGradient1013"/>
  <linearGradient id="linearGradient1013">
   <stop offset="0" style="stop-color:#ffffff"/>
   <stop style="stop-color:#ffffff;stop-opacity:0.09803922" offset=".125"/>
   <stop style="stop-color:#000000;stop-opacity:0.09803922" offset=".925"/>
   <stop offset="1" style="stop-color:#000000;stop-opacity:0.49803922"/>
  </linearGradient>
  <clipPath id="clipPath1082" clipPathUnits="userSpaceOnUse">
   <path d="M 361.9375,-212 C 507.2348,-212 528,-191.28677 528,-46.125 V 70.125 C 528,215.28618 507.2348,236 361.9375,236 H 214.0625 C 68.7652,236 48,215.28618 48,70.125 V -46.125 C 48,-191.28677 68.7652,-212 214.0625,-212 Z" style="fill:#8c59d9"/>
  </clipPath>
  <filter style="color-interpolation-filters:sRGB" id="filter1015" width="1.046" height="1.05" x="-.02" y="-.03">
   <feGaussianBlur stdDeviation="2.32"/>
  </filter>
  <linearGradient id="g" x1="8" x2="21" y1="4" y2="32" gradientTransform="translate(7,4)" gradientUnits="userSpaceOnUse">
   <stop stop-color="#bdc3c7"/>
   <stop offset="1" stop-color="#7f8c8d"/>
  </linearGradient>
  <linearGradient id="b" x2="0" y1="36" y2="32" gradientTransform="translate(-4.5,4)" gradientUnits="userSpaceOnUse">
   <stop stop-color="#f39c12"/>
   <stop offset="1" stop-color="#f5ab35"/>
  </linearGradient>
  <linearGradient id="a" x1="27" x2="19" y1="44" y2="33" gradientTransform="matrix(5.0000001,0,0,6.2500001,57.464823,-10.717985)" gradientUnits="userSpaceOnUse">
   <stop stop-color="#18222a"/>
   <stop offset="1" stop-color="#566069"/>
  </linearGradient>
  <filter style="color-interpolation-filters:sRGB" id="filter989" width="1.144" height="1.072" x="-.07" y="-.04">
   <feGaussianBlur stdDeviation=".54"/>
  </filter>
 </defs>
 <g transform="translate(0,-229.26666)">
  <path d="m 43.837429,232.36713 c 19.593906,0 22.394174,2.79326 22.394174,22.36889 v 15.67676 c 0,19.57555 -2.800268,22.36889 -22.394174,22.36889 h -19.94152 c -19.5939075,0 -22.3941759,-2.79334 -22.3941759,-22.36889 v -15.67676 c 0,-19.57563 2.8002684,-22.36889 22.3941759,-22.36889 z" style="opacity:0.2;fill:none;stroke:#000000;stroke-width:1.0788312;stroke-linecap:round;stroke-linejoin:round"/>
  <path d="m 188.96876,45.999995 c 72.64865,0 83.03125,10.356615 83.03125,82.937505 v 58.125 c 0,72.58059 -10.3826,82.9375 -83.03125,82.9375 h -73.9375 C 42.382606,270 32.000006,259.64309 32.000006,187.0625 v -58.125 c 0,-72.58089 10.3826,-82.937505 83.031254,-82.937505 z" transform="matrix(0.26970778,0,0,0.26970778,-7.1289177,220.49999)" style="opacity:0.2;filter:url(#filter1015)"/>
  <path style="fill:#f1f0e9" d="m 43.837426,232.36713 c 19.593907,0 22.394175,2.79326 22.394175,22.36889 v 15.67676 c 0,19.57555 -2.800268,22.36889 -22.394175,22.36889 h -19.94152 c -19.5939064,0 -22.3941745,-2.79334 -22.3941745,-22.36889 v -15.67676 c 0,-19.57563 2.8002681,-22.36889 22.3941745,-22.36889 z"/>
  <path style="opacity:0.05;fill:#02171f" d="m 23.895906,232.36713 c -19.5939064,0 -22.3941745,2.79326 -22.3941745,22.36889 v 15.67676 c 0,19.57555 2.8002681,22.36889 22.3941745,22.36889 h 9.970758 v -20.48409 -19.44635 -20.4841 z"/>
  <g style="enable-background:new" transform="matrix(0.26970778,0,0,0.26970778,-7.1289177,220.49999)">
   <path style="fill:#c8c4b7;fill-opacity:0.99607843" d="M 72,108 V 99.999999 H 216.66665 V 108 Z"/>
   <path style="fill:#aea795;fill-opacity:0.99738566" d="m 160,124 v -8 h 79.33333 v 8 z"/>
   <path d="m 72,116 v 64 l 72,5e-5 V 116 Z" style="fill:#c8c4b7"/>
   <path d="m 160,140 v -8 h 40 v 8 z" style="fill:#aea795;fill-opacity:0.99738566"/>
   <path style="fill:#c8c4b7;fill-opacity:0.99607843" d="M 160,155.92689 V 148 h 79.33333 v 7.92689 z"/>
   <path d="m 72,212 v -8 h 167.99998 v 8 z" style="fill:#c8c4b7;fill-opacity:0.99607843"/>
   <path style="fill:#e7e7df" d="m 125.42423,132 c -4.55633,0 -8.25,3.69364 -8.25,8.25 0,4.55635 3.69367,8.25 8.25,8.25 4.55634,0 8.25,-3.69365 8.25,-8.25 0,-4.55636 -3.69365,-8.25 -8.25,-8.25 z M 100.57682,139.43628 84,168 h 37.68961 l -11.01562,-21.11207 -3.10473,5.95094 z"/>
   <path d="M 160,171.92689 V 164 h 79.33333 v 7.92689 z" style="fill:#c8c4b7;fill-opacity:0.99607843"/>
   <path style="fill:#c8c4b7;fill-opacity:0.99607843" d="m 72,196 v -7.92689 H 239.99999 V 196 Z"/>
   <path d="m 72,228 v -8 h 104 v 8 z" style="fill:#c8c4b7;fill-opacity:0.99607843"/>
   <path d="m 72,92 v -8 h 167.99998 v 8 z" style="fill:#c8c4b7;fill-opacity:0.99607843"/>
  </g>
  <g transform="matrix(1.3229167,0,0,1.3229167,21.818818,234.36836)" style="fill:#2d2d2d;filter:url(#filter989);opacity:0.3">
   <path d="m 18,8 a 2,2 0 0 0 -2,2 2,2 0 0 0 0.855469,1.636719 C 15.389,16.06 12.71,23.29 10,26 c 0,0 4,6 4,10 H 24 C 24,32 28,26 28,26 25.29,23.29 22.613,16.07 21.15,11.639 A 2,2 0 0 0 22,10 2,2 0 0 0 20,8 v 18.27 c 0.618,0.357 0.999,1.017 1,1.73 0,1.105 -0.895,2 -2,2 -1.105,0 -2,-0.895 -2,-2 0.001,-0.713 0.382,-1.372 1,-1.729 V 12 Z" style="fill:#2d2d2d"/>
   <g style="fill:#2d2d2d">
    <path d="m 14,36 h 10 c 0.831,0 1.5,0.669 1.5,1.5 0,0.831 -0.669,1.5 -1.5,1.5 H 14 c -0.831,0 -1.5,-0.669 -1.5,-1.5 0,-0.831 0.669,-1.5 1.5,-1.5" style="fill:#2d2d2d"/>
    <path style="fill:#2d2d2d" d="M 192.72266 239.28125 C 195.58136 239.08682 198.40804 238.88268 200.99609 238.59375 C 201.51854 238.53543 201.95311 238.4414 202.46484 238.37891 L 202.46484 214.28125 L 152.46484 214.28125 L 152.46484 239.28125 L 192.72266 239.28125 z" transform="matrix(0.2,0,0,0.2,-16.492964,-3.8564031)"/>
   </g>
  </g>
  <g transform="matrix(1.3229167,0,0,1.3229167,21.818818,234.36836)">
   <path d="m 18,8 a 2,2 0 0 0 -2,2 2,2 0 0 0 0.855469,1.636719 C 15.389,16.06 12.71,23.29 10,26 c 0,0 4,6 4,10 H 24 C 24,32 28,26 28,26 25.29,23.29 22.613,16.07 21.15,11.639 A 2,2 0 0 0 22,10 2,2 0 0 0 20,8 v 18.27 c 0.618,0.357 0.999,1.017 1,1.73 0,1.105 -0.895,2 -2,2 -1.105,0 -2,-0.895 -2,-2 0.001,-0.713 0.382,-1.372 1,-1.729 V 12 Z" style="fill:url(#g)"/>
   <g>
    <path d="m 14,36 h 10 c 0.831,0 1.5,0.669 1.5,1.5 0,0.831 -0.669,1.5 -1.5,1.5 H 14 c -0.831,0 -1.5,-0.669 -1.5,-1.5 0,-0.831 0.669,-1.5 1.5,-1.5" style="fill:url(#b)"/>
    <path style="fill:url(#a)" d="M 192.72266 239.28125 C 195.58136 239.08682 198.40804 238.88268 200.99609 238.59375 C 201.51854 238.53543 201.95311 238.4414 202.46484 238.37891 L 202.46484 214.28125 L 152.46484 214.28125 L 152.46484 239.28125 L 192.72266 239.28125 z" transform="matrix(0.2,0,0,0.2,-16.492964,-3.8564031)"/>
   </g>
  </g>
  <path d="M 361.9375,-212 C 507.2348,-212 528,-191.28677 528,-46.125 V 70.125 C 528,215.28618 507.2348,236 361.9375,236 H 214.0625 C 68.7652,236 48,215.28618 48,70.125 V -46.125 C 48,-191.28677 68.7652,-212 214.0625,-212 Z" clip-path="url(#clipPath1082)" transform="matrix(0.13485389,0,0,0.13485389,-4.9712557,260.95615)" style="opacity:0.5;fill:none;stroke:url(#linearGradient1108);stroke-width:8;stroke-linecap:round;stroke-linejoin:round"/>
  <g transform="matrix(1.3229167,0,0,1.3229167,21.818818,234.36836)">
   <path style="fill:url(#g)" d="m 18,8 a 2,2 0 0 0 -2,2 2,2 0 0 0 0.855469,1.636719 C 15.389,16.06 12.71,23.29 10,26 c 0,0 4,6 4,10 H 24 C 24,32 28,26 28,26 25.29,23.29 22.613,16.07 21.15,11.639 A 2,2 0 0 0 22,10 2,2 0 0 0 20,8 v 18.27 c 0.618,0.357 0.999,1.017 1,1.73 0,1.105 -0.895,2 -2,2 -1.105,0 -2,-0.895 -2,-2 0.001,-0.713 0.382,-1.372 1,-1.729 V 12 Z"/>
   <g>
    <path style="fill:url(#b)" d="m 14,36 h 10 c 0.831,0 1.5,0.669 1.5,1.5 0,0.831 -0.669,1.5 -1.5,1.5 H 14 c -0.831,0 -1.5,-0.669 -1.5,-1.5 0,-0.831 0.669,-1.5 1.5,-1.5"/>
    <path d="M 192.72266 239.28125 C 195.58136 239.08682 198.40804 238.88268 200.99609 238.59375 C 201.51854 238.53543 201.95311 238.4414 202.46484 238.37891 L 202.46484 214.28125 L 152.46484 214.28125 L 152.46484 239.28125 L 192.72266 239.28125 z" transform="matrix(0.2,0,0,0.2,-16.492964,-3.8564031)" style="fill:url(#a)"/>
   </g>
  </g>
  <path style="opacity:0.5;fill:none;stroke:url(#linearGradient1108);stroke-width:8;stroke-linecap:round;stroke-linejoin:round" d="M 361.9375,-212 C 507.2348,-212 528,-191.28677 528,-46.125 V 70.125 C 528,215.28618 507.2348,236 361.9375,236 H 214.0625 C 68.7652,236 48,215.28618 48,70.125 V -46.125 C 48,-191.28677 68.7652,-212 214.0625,-212 Z" clip-path="url(#clipPath1082)" transform="matrix(0.13485389,0,0,0.13485389,-4.9712557,260.95615)"/>
 </g>
</svg>
